X: 167
T: The Lads of the Village
%R: jig
B: Chas & Sam Thompson "Twenty Four Country Dances for the Year 1779", London 1779, p.84 #1
F: http://www.vwml.org/browse/browse-collections-dance-tune-books/browse-thompsons1779
Z: 2014 John Chambers <jc:trillian.mit.edu> (added dance description)
M: 6/8
L: 1/8
K: F
% - - - - - - - - - - - - - - - - - - - - - - - - - - - - -
c |\
cAc fcA | dBd fdB | def gab | agf edc |\
cAc fcA | dBd gab | agf edc | f3 F2 :|
|: g |\
gbg ece | gbg ece | ac'a fcf | ac'a fcf |\
gbg ece | gec gab | agf cde | f3 F2 :|
% - - - - - - - - - - Dance description - - - - - - - - - -
%%begintext align
%%   Turn right hands across round Left
%% hands back again .|. lead down two
%% Cu. cast up one :|. Set 3 and 3 top &
%% bottom the same sideways .|: hands 6
%% quite round :|:
%%endtext

%%sep 1 1 500
%%sep 1 1 500
